images/duration.svg

<svg enable-background="new 0 0 100 100" viewBox="0 0 100 100" xmlns="http://www.w3.org/2000/svg"><path d="m50 92c19.9 0 36-16.1 36-36 0-18.5-14-33.8-32-35.8v-4.2h6v-8h-20v8h6v4.2c-18 2-32 17.2-32 35.8 0 19.9 16.1 36 36 36zm0-68c17.6 0 32 14.4 32 32s-14.4 32-32 32-32-14.4-32-32 14.4-32 32-32z"/><path d="m50 82c14.4 0 26-11.6 26-26s-11.6-26-26-26v26l-22.5 13c4.5 7.8 12.9 13 22.5 13z"/><path d="m75.8 15.8-5.8 5.8c5.8 3.4 10.7 8.3 14.1 14.1l5.8-5.8c-3.6-5.7-8.5-10.5-14.1-14.1z"/></svg>

<svg xmlns="http://www.w3.org/2000/svg" xmlns:xlink="http://www.w3.org/1999/xlink" version="1.1" x="0px" y="0px" viewBox="0 0 100 100" enable-background="new 0 0 100 100" xml:space="preserve"><path d="M50,92c19.9,0,36-16.1,36-36c0-18.5-14-33.8-32-35.8V16h6V8H40v8h6v4.2c-18,2-32,17.2-32,35.8C14,75.9,30.1,92,50,92z   M50,24c17.6,0,32,14.4,32,32c0,17.6-14.4,32-32,32S18,73.6,18,56C18,38.4,32.4,24,50,24z"/><path d="M50,82c14.4,0,26-11.6,26-26c0-14.4-11.6-26-26-26v26L27.5,69C32,76.8,40.4,82,50,82z"/><path d="M75.8,15.8L70,21.6c5.8,3.4,10.7,8.3,14.1,14.1l5.8-5.8C86.3,24.2,81.4,19.4,75.8,15.8z"/></svg>
